icons/infrared-thermometer.svg

<svg width="24" height="24" viewBox="0 0 24 24" fill="none" xmlns="http://www.w3.org/2000/svg">
<path d="M4.5 10.5L7.5 3H20V10H12.5L11.7105 15L11 19.5L12 21H4.5L6.5 11.5L4.5 10.5Z" stroke="white" stroke-width="2" stroke-linecap="round" stroke-linejoin="round"/>
<path d="M17 10V12C17 13.6569 15.6569 15 14 15H11.7105" stroke="white" stroke-width="2" stroke-linecap="round" stroke-linejoin="round"/>
</svg>

<svg
  width="24"
  height="24"
  viewBox="0 0 24 24"
  xmlns="http://www.w3.org/2000/svg"
  fill="none"
  stroke="currentColor"
  stroke-width="2"
  stroke-linecap="round"
  stroke-linejoin="round"
>
  <path d="M4.5 10.5l3-7.5H20v7h-7.5l-.79 5-.71 4.5 1 1.5H4.5l2-9.5-2-1z" />
  <path d="M17 10v2a3 3 0 0 1-3 3h-2.29" />
</svg>
